svgs/hearthstone.svg

<svg width="192" height="192" viewBox="0 0 192 192" fill="none" xmlns="http://www.w3.org/2000/svg">
<path d="M94.7212 171.955L110.832 144.515L126.661 136.673L142.739 141.775L136.354 124.453C136.354 124.453 143.351 118.5 145.672 108.372L170.516 94.2052L144.267 79.7607C144.267 79.7607 142.585 70.9757 136.631 65.4056L140.423 48.0744L121.791 53.7253C121.791 53.7253 118.463 49.0618 112.162 47.612L95.4021 20.0455L79.8386 48.5593C79.8386 48.5593 73.9538 49.6909 67.827 53.5664L50.1179 46.2321L56.0677 63.7367C56.0677 63.7367 51.8075 70.1065 50.0109 78.2304L21.4844 94.132L48.7597 109.504C48.7597 109.504 49.2202 117.31 54.9502 123.427L48.9841 139.593L66.1093 135.41C66.1093 135.41 75.3165 144.329 82.6413 144.751L94.7212 171.955Z" stroke="black" stroke-width="12" stroke-miterlimit="6" stroke-linecap="round" stroke-linejoin="round"/>
<path d="M94.8124 93.4796L95.0674 101.855C95.2288 107.153 63.6585 97.8971 78.4201 77.6891C94.3858 55.8326 113.246 75.001 115.216 78.1589C117.367 81.6068 128.972 110.691 101.782 118.804C83.7083 124.197 79.0044 123.977 79.0044 123.977" stroke="black" stroke-width="12" stroke-linecap="round" stroke-linejoin="round"/>
</svg>

<svg width="192" height="192" fill="none" xmlns="http://www.w3.org/2000/svg"><path d="m94.721 171.955 16.111-27.44 15.829-7.842 16.078 5.102-6.385-17.322s6.997-5.953 9.318-16.081l24.844-14.167-26.249-14.444s-1.682-8.785-7.636-14.355l3.792-17.332-18.632 5.651s-3.328-4.663-9.629-6.113l-16.76-27.567L79.84 48.56s-5.885 1.132-12.012 5.007l-17.71-7.334 5.95 17.505s-4.26 6.37-6.056 14.493L21.484 94.132l27.276 15.372s.46 7.806 6.19 13.923l-5.966 16.166 17.125-4.183s9.208 8.919 16.532 9.341l12.08 27.204Z" stroke="#000" stroke-width="12" stroke-miterlimit="6" stroke-linecap="round" stroke-linejoin="round"/><path d="m94.812 93.48.255 8.375c.162 5.298-31.408-3.958-16.647-24.166 15.966-21.856 34.826-2.688 36.796.47 2.151 3.448 13.756 32.532-13.434 40.645-18.074 5.393-22.778 5.173-22.778 5.173" stroke="#000" stroke-width="12" stroke-linecap="round" stroke-linejoin="round"/></svg>
